X: 1
T: Few Bob, The
M: 4/4
L: 1/8
R: hornpipe
K: Gmaj
GA|:BABG EFGA|~B2 G2 G2 gf|e3d cBAG|E2 A2 A2 GA|
~BABG EF G2|~BABd efge|dcBA GABA|1 ~G2 E2 E2 GA :|2 ~G2 E2 E2 ef ||
|:g3e defg|a2 d2 d2 ef|g3f efga|bdad a2 ga|
bgab abgf|edef g2 fe|dcBA GABA|1 ~G2 E2 E2 ef:|2 ~G2 E2 E2 GA||
